; generated by PrusaSlicer 2.4.2+win64 on 2022-05-26 at 17:56:16 UTC


;
;

;
;
; 

; external perimeters extrusion width = 0.45mm
; perimeters extrusion width = 0.45mm
; infill extrusion width = 0.45mm
; solid infill extrusion width = 0.45mm
; top infill extrusion width = 0.40mm
; first layer extrusion width = 0.42mm

M73 P0 R142
M73 Q0 S142
M201 X1000 Y1000 Z200 E5000 ; sets maximum accelerations, mm/sec^2
M203 X200 Y200 Z12 E120 ; sets maximum feedrates, mm / sec
M204 P1250 R1250 T1250 ; sets acceleration (P, T) and retract acceleration (R), mm/sec^2
M205 X8.00 Y8.00 Z0.40 E4.50 ; sets the jerk limits, mm/sec
M205 S0 T0 ; sets the minimum extruding and travel feed rate, mm/sec
M107
;TYPE:Custom
M862.3 P "MK3S" ; printer model check
M862.1 P0.4 ; nozzle diameter check
M115 U3.10.0 ; tell printer latest fw version
G90 ; use absolute coordinates
M83 ; extruder relative mode
M104 S215 ; set extruder temp
M140 S60 ; set bed temp
M190 S60 ; wait for bed temp
M109 S215 ; wait for extruder temp
G28 W ; home all without mesh bed level
G80 ; mesh bed leveling
G1 Y-3.0 F1000.0 ; go outside print area
G92 E0.0
G1 X60.0 E9.0 F1000.0 ; intro line
G1 X100.0 E12.5 F1000.0 ; intro line
G92 E0.0
M221 S95

; Don't change E values below. Excessive value can damage the printer.

M907 E538 ; set extruder motor current
G21 ; set units to millimeters
G90 ; use absolute coordinates
M83 ; use relative distances for extrusion
M900 K0.05 ; Filament gcode LA 1.5
M900 K30 ; Filament gcode LA 1.0
M107
;LAYER_CHANGE
;Z:0.2
;HEIGHT:0.2
;BEFORE_LAYER_CHANGE
G92 E0.0
;0.2


G1 E-.8 F2100
G1 Z.4 F720
;AFTER_LAYER_CHANGE
;0.2
G1 X61.197 Y52.176 F10800
G1 Z.2 F720
G1 E.8 F2100
M204 S800
;TYPE:Skirt/Brim
;WIDTH:0.42
G1 F1200
G1 X61.775 Y51.565 E.0264
G1 X63.067 Y50.759 E.04772
G1 X64.531 Y50.387 E.04737
G1 X185.439 Y50.39 E3.791
G1 X186.459 Y50.584 E.03256
G1 X187.438 Y51 E.03333
G1 X188.562 Y51.896 E.04508
G1 X189.455 Y53.234 E.05044
G1 X189.863 Y54.779 E.05011
G1 X189.863 Y155.247 E3.1501
G1 X189.247 Y157.204 E.06435
G1 X188.803 Y157.824 E.02389
G1 X188.225 Y158.435 E.0264
G1 X186.933 Y159.241 E.04772
G1 X185.469 Y159.613 E.04737
G1 X64.503 Y159.613 E3.79281
G1 X62.546 Y158.997 E.06435
G1 X61.926 Y158.553 E.02389
G1 X61.315 Y157.975 E.0264
G1 X60.509 Y156.683 E.04772
G1 X60.137 Y155.219 E.04737
G1 X60.137 Y54.753 E3.15004
G1 X60.753 Y52.796 E.06435
G1 X61.162 Y52.225 E.02201
M204 S1000
G1 X61.467 Y52.443 F10800
M204 S800
G1 F1200
G1 X62.033 Y51.841 E.0259
G1 X63.19 Y51.117 E.04279
G1 X64.555 Y50.764 E.04422
G1 X185.421 Y50.767 E3.78966
G1 X186.367 Y50.95 E.03023
G1 X187.265 Y51.336 E.03062
G1 X188.303 Y52.171 E.0418
G1 X189.099 Y53.362 E.0449
G1 X189.486 Y54.804 E.04682
G1 X189.486 Y155.218 E3.14841
G1 X188.923 Y157.01 E.05889
M73 P0 R141
M73 Q0 S141
G1 X188.52 Y157.574 E.02173
G1 X187.967 Y158.159 E.02524
G1 X186.81 Y158.883 E.04279
G1 X185.445 Y159.236 E.04422
G1 X64.532 Y159.236 E3.79114
G1 X62.74 Y158.673 E.05889
G1 X62.176 Y158.27 E.02173
G1 X61.591 Y157.717 E.02524
G1 X60.867 Y156.56 E.04279
G1 X60.514 Y155.195 E.04422
G1 X60.514 Y54.782 E3.14838
G1 X61.077 Y52.99 E.05889
G1 X61.432 Y52.492 E.01919
M204 S1000
G1 X61.739 Y52.709 F10800
M204 S800
G1 F1200
G1 X62.29 Y52.119 E.02533
G1 X63.363 Y51.453 E.03961
G1 X64.579 Y51.141 E.03933
G1 X185.402 Y51.144 E3.78834
G1 X186.274 Y51.316 E.02786
G1 X187.09 Y51.671 E.02791
G1 X188.043 Y52.445 E.03848
G1 X188.767 Y53.543 E.04126
G1 X189.109 Y54.828 E.0417
G1 X189.109 Y155.189 E3.14675
G1 X188.598 Y156.816 E.05346
G1 X188.237 Y157.325 E.01956
G1 X187.71 Y157.881 E.02404
G1 X186.637 Y158.547 E.03961
G1 X185.422 Y158.859 E.03933
G1 X64.561 Y158.859 E3.78951
G1 X62.934 Y158.348 E.05346
G1 X62.425 Y157.987 E.01956
G1 X61.869 Y157.46 E.02404
G1 X61.203 Y156.387 E.03961
G1 X60.891 Y155.172 E.03933
G1 X60.891 Y54.811 E3.14674
G1 X61.402 Y53.184 E.05346
G1 X61.704 Y52.758 E.01637
M204 S1000
G1 X62.011 Y52.975 F10800
M204 S800
G1 F1200
G1 X62.547 Y52.395 E.02476
G1 X63.487 Y51.81 E.03471
G1 X64.603 Y51.518 E.03618
G1 X185.383 Y51.521 E3.78697
G1 X186.179 Y51.681 E.02545
G1 X186.914 Y52.005 E.02518
G1 X187.78 Y52.717 E.03516
G1 X188.435 Y53.723 E.03763
G1 X188.732 Y54.852 E.03663
G1 X188.732 Y155.161 E3.14509
G1 X188.273 Y156.623 E.04805
M73 P1 R141
M73 Q1 S141
G1 X187.954 Y157.075 E.01737
G1 X187.453 Y157.605 E.02285
G1 X186.513 Y158.19 E.03471
G1 X185.397 Y158.482 E.03617
G1 X64.589 Y158.482 E3.78783
G1 X63.127 Y158.023 E.04805
G1 X62.675 Y157.704 E.01737
G1 X62.145 Y157.203 E.02285
G1 X61.56 Y156.263 E.03471
G1 X61.268 Y155.147 E.03617
G1 X61.268 Y54.839 E3.14507
G1 X61.727 Y53.377 E.04805
M73 P1 R140
M73 Q1 S140
G1 X61.976 Y53.024 E.01356
M204 S1000
G1 X62.284 Y53.239 F10800
M204 S800
G1 F1200
G1 X62.804 Y52.673 E.02411
G1 X63.66 Y52.146 E.03152
G1 X64.627 Y51.895 E.03133
G1 X185.364 Y51.898 E3.78564
G1 X186.046 Y52.035 E.02178
G1 X186.737 Y52.339 E.02369
G1 X187.517 Y52.988 E.03181
G1 X188.079 Y53.85 E.03225
G1 X188.355 Y54.878 E.03337
G1 X188.355 Y155.132 E3.1434
G1 X187.948 Y156.431 E.04268
G1 X187.67 Y156.827 E.01516
G1 X187.196 Y157.327 E.02162
G1 X186.34 Y157.854 E.03152
G1 X185.373 Y158.105 E.03133
G1 X64.618 Y158.105 E3.78619
G1 X63.319 Y157.698 E.04268
G1 X62.923 Y157.42 E.01516
G1 X62.423 Y156.946 E.02162
G1 X61.896 Y156.09 E.03152
G1 X61.645 Y155.123 E.03133
G1 X61.645 Y54.868 E3.14342
G1 X62.052 Y53.569 E.04268
G1 X62.249 Y53.288 E.01076
M204 S1000
G1 X62.558 Y53.502 F10800
M204 S800
G1 F1200
G1 X62.614 Y53.422 E.00307
G1 X63.061 Y52.95 E.0204
G1 X63.784 Y52.503 E.02666
G1 X64.652 Y52.272 E.02816
G1 X185.345 Y52.276 E3.78423
G1 X185.949 Y52.4 E.01933
G1 X186.558 Y52.672 E.02093
G1 X187.251 Y53.257 E.02843
G1 X187.745 Y54.028 E.0287
G1 X187.978 Y54.902 E.02837
G1 X187.978 Y155.103 E3.14174
G1 X187.622 Y156.239 E.03734
G1 X187.386 Y156.578 E.01292
G1 X186.939 Y157.05 E.0204
G1 X186.216 Y157.497 E.02666
G1 X185.348 Y157.728 E.02816
G1 X64.647 Y157.728 E3.7845
G1 X63.511 Y157.372 E.03734
G1 X63.172 Y157.136 E.01292
G1 X62.7 Y156.689 E.0204
G1 X62.253 Y155.966 E.02666
G1 X62.022 Y155.098 E.02816
G1 X62.022 Y54.897 E3.14173
G1 X62.378 Y53.761 E.03734
G1 X62.523 Y53.552 E.00797
M204 S1000
G1 X62.833 Y53.764 F10800
M204 S800
G1 F1200
G1 X62.898 Y53.67 E.00358
G1 X63.318 Y53.226 E.01916
G1 X63.911 Y52.859 E.02187
G1 X64.678 Y52.649 E.02494
G1 X185.324 Y52.653 E3.78278
G1 X185.849 Y52.764 E.01682
G1 X186.377 Y53.004 E.01817
G1 X186.984 Y53.525 E.0251
G1 X187.389 Y54.156 E.02351
G1 X187.601 Y54.928 E.0251
G1 X187.601 Y155.074 E3.14002
G1 X187.295 Y156.05 E.03205
M73 Q1 S139
G1 X187.102 Y156.33 E.01066
G1 X186.682 Y156.774 E.01916
G1 X186.089 Y157.141 E.02187
G1 X185.322 Y157.351 E.02494
G1 X64.676 Y157.351 E3.78278
M73 P1 R139
G1 X63.7 Y157.045 E.03205
G1 X63.42 Y156.852 E.01066
G1 X62.976 Y156.432 E.01916
G1 X62.609 Y155.839 E.02187
G1 X62.399 Y155.072 E.02494
G1 X62.399 Y54.926 E3.14002
G1 X62.705 Y53.95 E.03205
G1 X62.799 Y53.814 E.0052
M204 S1000
G1 X63.11 Y54.025 F10800
M204 S800
G1 F1200
G1 X63.183 Y53.918 E.00404
G1 X63.575 Y53.503 E.0179
G1 X64.04 Y53.214 E.01715
G1 X64.705 Y53.026 E.02167
G1 X185.303 Y53.03 E3.78128
G1 X185.747 Y53.127 E.01424
M73 P2 R139
M73 Q2 S139
G1 X186.193 Y53.334 E.01541
G1 X186.716 Y53.791 E.02178
G1 X187.035 Y54.286 E.01847
G1 X187.224 Y54.955 E.02179
G1 X187.224 Y155.045 E3.13827
G1 X186.967 Y155.861 E.02682
G1 X186.817 Y156.082 E.00836
G1 X186.425 Y156.497 E.0179
G1 X185.96 Y156.786 E.01715
G1 X185.295 Y156.974 E.02167
G1 X64.705 Y156.974 E3.78103
G1 X63.889 Y156.717 E.02682
G1 X63.668 Y156.567 E.00836
G1 X63.253 Y156.175 E.0179
G1 X62.964 Y155.71 E.01715
G1 X62.776 Y155.045 E.02167
G1 X62.776 Y54.955 E3.13827
G1 X63.033 Y54.139 E.02682
G1 X63.077 Y54.074 E.00244
M204 S1000
G1 X63.39 Y54.282 F10800
M204 S800
G1 F1200
G1 X63.468 Y54.165 E.00443
G1 X63.833 Y53.78 E.01662
G1 X64.172 Y53.568 E.01254
G1 X64.733 Y53.403 E.01834
G1 X185.281 Y53.407 E3.7797
G1 X185.641 Y53.49 E.01157
G1 X186.006 Y53.662 E.01266
G1 X186.446 Y54.054 E.01848
G1 X186.681 Y54.42 E.01362
G1 X186.847 Y54.983 E.01841
G1 X186.847 Y155.016 E3.13648
G1 X186.638 Y155.675 E.02168
G1 X186.532 Y155.835 E.00602
G1 X186.167 Y156.22 E.01662
G1 X185.828 Y156.432 E.01254
G1 X185.267 Y156.597 E.01834
G1 X64.734 Y156.597 E3.77924
G1 X64.075 Y156.388 E.02168
G1 X63.915 Y156.282 E.00602
G1 X63.53 Y155.917 E.01662
G1 X63.318 Y155.578 E.01254
G1 X63.153 Y155.017 E.01834
G1 X63.153 Y54.984 E3.13648
G1 X63.359 Y54.334 E.02138
M204 S1000
G1 X63.693 Y54.507 F10800
M204 S800
G1 F1200
G1 X63.755 Y54.41 E.00362
G1 X64.09 Y54.056 E.01528
G1 X64.308 Y53.921 E.00804
G1 X64.762 Y53.78 E.01493
G1 X185.259 Y53.784 E3.77809
G1 X185.497 Y53.839 E.00767
M73 P2 R138
M73 Q2 S138
G1 X185.818 Y53.991 E.01111
G1 X186.173 Y54.315 E.01508
G1 X186.329 Y54.557 E.00902
G1 X186.47 Y55.012 E.01495
G1 X186.47 Y154.987 E3.13462
G1 X186.307 Y155.493 E.01667
G1 X186.245 Y155.59 E.00362
G1 X185.91 Y155.944 E.01528
G1 X185.692 Y156.079 E.00804
G1 X185.238 Y156.22 E.01493
G1 X64.763 Y156.22 E3.77739
G1 X64.257 Y156.057 E.01667
G1 X64.16 Y155.995 E.00362
G1 X63.806 Y155.66 E.01528
G1 X63.671 Y155.442 E.00804
G1 X63.53 Y154.988 E.01493
G1 X63.53 Y55.013 E3.13462
G1 X63.674 Y54.564 E.01478
M204 S1000
G1 X64.026 Y54.683 F10800
M204 S800
G1 F1200
G1 X64.347 Y54.334 E.01486
G1 X64.448 Y54.271 E.00372
G1 X64.794 Y54.157 E.01143
G1 X185.237 Y54.161 E3.7764
G1 X185.354 Y54.188 E.00377
G1 X185.628 Y54.318 E.0095
G1 X185.897 Y54.573 E.0116
G1 X185.98 Y54.7 E.00476
G1 X186.093 Y55.044 E.01136
G1 X186.093 Y154.956 E3.13266
G1 X185.956 Y155.347 E.01299
G1 X185.653 Y155.666 E.0138
G1 X185.552 Y155.729 E.00372
G1 X185.206 Y155.843 E.01143
G1 X64.794 Y155.843 E3.77542
G1 X64.403 Y155.706 E.01299
G1 X64.084 Y155.403 E.0138
G1 X64.021 Y155.302 E.00372
G1 X63.907 Y154.956 E.01143
G1 X63.907 Y55.044 E3.13266
G1 X64.008 Y54.74 E.01005
M204 S1000
M73 P3 R138
M73 Q3 S138
G1 X64.361 Y54.866 F10800
M204 S800
G1 F1200
G1 X64.578 Y54.632 E.01002
G1 X64.829 Y54.534 E.00845
G1 X185.185 Y54.534 E3.77367
G1 X185.435 Y54.644 E.00856
G1 X185.634 Y54.852 E.00902
G1 X185.716 Y55.079 E.00757
G1 X185.716 Y154.921 E3.13046
G1 X185.639 Y155.134 E.00709
G1 X185.422 Y155.368 E.01002
G1 X185.171 Y155.466 E.00845
G1 X64.829 Y155.466 E3.77323
G1 X64.616 Y155.389 E.00709
G1 X64.382 Y155.172 E.01002
G1 X64.284 Y154.921 E.00845
G1 X64.284 Y55.079 E3.13046
G1 X64.34 Y54.923 E.00521
M204 S1000
M73 P3 R137
M73 Q3 S137
G1 X64.685 Y55.065 F10800
M204 S800
G1 F1200
G1 X64.802 Y54.94 E.00538
G1 X64.871 Y54.911 E.00235
G1 X185.129 Y54.911 E3.7706
G1 X185.198 Y54.94 E.00235
G1 X185.31 Y55.052 E.00495
G1 X185.339 Y55.121 E.00235
G1 X185.339 Y154.879 E3.12784
G1 X185.31 Y154.948 E.00235
G1 X185.198 Y155.06 E.00495
G1 X185.129 Y155.089 E.00235
G1 X64.871 Y155.089 E3.7706
G1 X64.802 Y155.06 E.00235
G1 X64.69 Y154.948 E.00495
G1 X64.661 Y154.879 E.00235
G1 X64.662 Y55.121 E3.12785
M204 S1000
; printing object Waveshare42-Display.stl id:0 copy 0
G1 X65.16 Y55.41 F10800
M204 S800
;TYPE:External perimeter
G1 F1200
G1 X184.84 Y55.41 E3.75248
G1 X184.84 Y154.59 E3.10972
G1 X65.16 Y154.59 E3.75248
G1 X65.16 Y55.47 E3.10784
M204 S1000
G1 X65.549 Y55.501 F10800
G1 X65.537 Y55.787
M204 S800
;TYPE:Perimeter
G1 F1200
G1 X184.463 Y55.787 E3.72884
G1 X184.463 Y154.213 E3.08607
G1 X65.537 Y154.213 E3.72884
G1 X65.537 Y55.847 E3.08419
M204 S1000
;WIPE_START
M73 P3 R136
M73 Q3 S136
G1 F8640
M73 P4 R136
M73 Q4 S136
G1 X68.829 Y55.845 E-.76
;WIPE_END
G1 E-.04 F2100
G1 Z.6 F720
G1 X81.84 Y72.09 F10800
G1 Z.2 F720
G1 E.8 F2100
M204 S800
;TYPE:External perimeter
G1 F1200
G1 X168.16 Y72.09 E2.7065
G1 X168.16 Y137.91 E2.06374
G1 X81.84 Y137.91 E2.7065
G1 X81.84 Y72.15 E2.06186
M204 S1000
G1 X81.719 Y71.709 F10800
G1 X81.463 Y71.713
M204 S800
;TYPE:Perimeter
G1 F1200
G1 X168.537 Y71.713 E2.73015
G1 X168.537 Y138.287 E2.08739
G1 X81.463 Y138.287 E2.73015
G1 X81.463 Y71.773 E2.0855
M204 S1000
;WIPE_START
G1 F8640
G1 X84.754 Y71.771 E-.76
;WIPE_END
G1 E-.04 F2100
G1 Z.6 F720
G1 X184.35 Y56.664 F10800
G1 Z.2 F720
G1 E.8 F2100
M204 S800
;TYPE:Solid infill
;WIDTH:0.420812
G1 F1200
G1 X183.756 Y56.07 E.02641
G1 X183.221 Y56.07 E.01679
G1 X184.18 Y57.029 E.04262
G1 X184.18 Y57.563 E.01679
G1 X182.687 Y56.07 E.06637
G1 X182.152 Y56.07 E.01679
G1 X184.18 Y58.098 E.09011
G1 X184.18 Y58.632 E.01679
G1 X181.618 Y56.07 E.11386
G1 X181.083 Y56.07 E.01679
G1 X184.18 Y59.167 E.13761
G1 X184.18 Y59.701 E.01679
G1 X180.549 Y56.07 E.16136
G1 X180.015 Y56.07 E.01679
G1 X184.18 Y60.235 E.18511
G1 X184.18 Y60.77 E.01679
G1 X179.48 Y56.07 E.20885
G1 X178.946 Y56.07 E.01679
G1 X184.18 Y61.304 E.2326
G1 X184.18 Y61.839 E.01679
G1 X178.411 Y56.07 E.25635
G1 X177.877 Y56.07 E.01679
G1 X184.18 Y62.373 E.2801
G1 X184.18 Y62.908 E.01679
G1 X177.342 Y56.07 E.30385
G1 X176.808 Y56.07 E.01679
G1 X184.18 Y63.442 E.32759
G1 X184.18 Y63.976 E.01679
G1 X176.274 Y56.07 E.35134
G1 X175.739 Y56.07 E.01679
G1 X184.18 Y64.511 E.37509
G1 X184.18 Y65.045 E.01679
G1 X175.205 Y56.07 E.39884
G1 X174.67 Y56.07 E.01679
G1 X184.18 Y65.58 E.42259
G1 X184.18 Y66.114 E.01679
G1 X174.136 Y56.07 E.44634
G1 X173.602 Y56.07 E.01679
G1 X184.18 Y66.648 E.47008
G1 X184.18 Y67.183 E.01679
G1 X173.067 Y56.07 E.49383
G1 X172.533 Y56.07 E.01679
G1 X184.18 Y67.717 E.51758
G1 X184.18 Y68.252 E.01679
G1 X171.998 Y56.07 E.54133
G1 X171.464 Y56.07 E.01679
G1 X184.18 Y68.786 E.56508
G1 X184.18 Y69.321 E.01679
G1 X170.929 Y56.07 E.58882
G1 X170.395 Y56.07 E.01679
G1 X184.18 Y69.855 E.61257
G1 X184.18 Y70.389 E.01679
G1 X169.861 Y56.07 E.63632
G1 X169.326 Y56.07 E.01679
G1 X184.18 Y70.924 E.66007
G1 X184.18 Y71.458 E.01679
G1 X168.792 Y56.07 E.68382
G1 X168.257 Y56.07 E.01679
G1 X184.18 Y71.993 E.70756
G1 X184.18 Y72.527 E.01679
M73 P4 R135
M73 Q4 S135
G1 X167.723 Y56.07 E.73131
G1 X167.188 Y56.07 E.01679
G1 X184.18 Y73.062 E.75506
G1 X184.18 Y73.596 E.01679
G1 X166.654 Y56.07 E.77881
G1 X166.12 Y56.07 E.01679
G1 X184.18 Y74.13 E.80256
G1 X184.18 Y74.665 E.01679
G1 X165.585 Y56.07 E.82631
G1 X165.051 Y56.07 E.01679
G1 X184.18 Y75.199 E.85005
G1 X184.18 Y75.734 E.01679
G1 X164.516 Y56.07 E.8738
G1 X163.982 Y56.07 E.01679
G1 X184.18 Y76.268 E.89755
G1 X184.18 Y76.802 E.01679
G1 X163.448 Y56.07 E.9213
G1 X162.913 Y56.07 E.01679
G1 X184.18 Y77.337 E.94505
G1 X184.18 Y77.871 E.01679
G1 X162.379 Y56.07 E.96879
G1 X161.844 Y56.07 E.01679
G1 X184.18 Y78.406 E.99254
G1 X184.18 Y78.94 E.01679
G1 X161.31 Y56.07 E1.01629
G1 X160.775 Y56.07 E.01679
G1 X184.18 Y79.475 E1.04004
G1 X184.18 Y80.009 E.01679
G1 X160.241 Y56.07 E1.06379
G1 X159.707 Y56.07 E.01679
G1 X184.18 Y80.543 E1.08753
G1 X184.18 Y81.078 E.01679
G1 X159.172 Y56.07 E1.11128
G1 X158.638 Y56.07 E.01679
G1 X184.18 Y81.612 E1.13503
G1 X184.18 Y82.147 E.01679
G1 X158.103 Y56.07 E1.15878
G1 X157.569 Y56.07 E.01679
G1 X184.18 Y82.681 E1.18253
G1 X184.18 Y83.215 E.01679
M73 P5 R135
M73 Q5 S135
G1 X157.035 Y56.07 E1.20628
G1 X156.5 Y56.07 E.01679
G1 X184.18 Y83.75 E1.23002
G1 X184.18 Y84.284 E.01679
G1 X155.966 Y56.07 E1.25377
G1 X155.431 Y56.07 E.01679
G1 X184.18 Y84.819 E1.27752
G1 X184.18 Y85.353 E.01679
G1 X154.897 Y56.07 E1.30127
G1 X154.362 Y56.07 E.01679
G1 X184.18 Y85.888 E1.32502
G1 X184.18 Y86.422 E.01679
G1 X153.828 Y56.07 E1.34876
G1 X153.294 Y56.07 E.01679
G1 X184.18 Y86.956 E1.37251
G1 X184.18 Y87.491 E.01679
G1 X168.82 Y72.131 E.68257
G1 X168.82 Y72.665 E.01679
G1 X184.18 Y88.025 E.68257
G1 X184.18 Y88.56 E.01679
G1 X168.82 Y73.199 E.68257
G1 X168.82 Y73.734 E.01679
G1 X184.18 Y89.094 E.68257
G1 X184.18 Y89.629 E.01679
G1 X168.82 Y74.268 E.68257
G1 X168.82 Y74.803 E.01679
G1 X184.18 Y90.163 E.68257
G1 X184.18 Y90.697 E.01679
G1 X168.82 Y75.337 E.68257
G1 X168.82 Y75.872 E.01679
G1 X184.18 Y91.232 E.68257
G1 X184.18 Y91.766 E.01679
G1 X168.82 Y76.406 E.68257
G1 X168.82 Y76.94 E.01679
G1 X184.18 Y92.301 E.68257
G1 X184.18 Y92.835 E.01679
M73 Q5 S134
G1 X168.82 Y77.475 E.68257
G1 X168.82 Y78.009 E.01679
M73 P5 R134
G1 X184.18 Y93.369 E.68257
G1 X184.18 Y93.904 E.01679
G1 X168.82 Y78.544 E.68257
G1 X168.82 Y79.078 E.01679
G1 X184.18 Y94.438 E.68257
G1 X184.18 Y94.973 E.01679
G1 X168.82 Y79.612 E.68257
G1 X168.82 Y80.147 E.01679
